svg/u1f6a9.svg

<svg viewBox="0 0 128 128" xmlns="http://www.w3.org/2000/svg">
  <path d="M8.04,3.32C5.31,4.05,4.35,6.66,4.71,9.46c0.35,2.81,13.69,110.04,14.04,112.15 c0.35,2.11,2.46,2.98,4.91,2.81c2.46-0.18,4.39-2.11,4.21-4.21C27.7,118.1,13.66,8.41,13.3,6.83S10.67,2.62,8.04,3.32z" fill="#B0B0B0"/>
  <path d="M22.43,117.14c-0.74,0-1.39-0.55-1.49-1.31L7.12,8.39C7.02,7.57,7.6,6.82,8.42,6.71 c0.82-0.1,1.57,0.47,1.68,1.3l13.82,107.44c0.11,0.82-0.47,1.57-1.3,1.68C22.56,117.14,22.49,117.14,22.43,117.14z" fill="#C8C8C8"/>
  <path d="M20.98,73.61c0,0,0.21,2.14,0.85,3.33c0.46,0.87,1.9,0.31,3.06-0.73c1.22-1.1,7.22-5.26,16.64-7.47 c11.57-2.7,26.2-7.27,35.25-13.22c12.85-8.44,16.09-15.01,21.91-22.27c5.87-7.34,9.55-10.77,15.18-13.83 c5.68-3.09,7.96-3.55,8.69-3.55c0.73,0,1.84-1.96,0.12-2.81c-1.71-0.86-14.32-1.71-14.32-1.71L24.28,59.08L20.98,73.61z" fill="#CC1935"/>
  <path d="M12.65,7.92l8.32,65.72c0,0,4.31-5.05,13.58-8.32c10.77-3.79,25.33-6,32.68-9.79 S84.49,43.9,91.1,36.19c6.61-7.71,11.16-14.41,18.11-19.34c5.87-4.16,13.46-3.79,13.46-3.79s-5.75-4.41-16.28-3.3 c-12.17,1.27-27.76,10.76-33.9,9.67C60.75,17.34,59.04,9.14,47.41,6.57C29.08,2.52,12.65,7.92,12.65,7.92z" fill="#FE2C23"/>
  <path d="M25.5,53.08c1.58-0.18,3.18-9.79,7.47-17.13s11.01-13.46,13.58-15.18c2.57-1.71,5.63-3.92,1.59-6.12 s-11.26-3.92-18.48-3.92c-7,0-8.81,0.73-9.18,1.59c-0.37,0.86,1.71,23.01,2.45,28.15C23.67,45.62,24.4,53.2,25.5,53.08z" fill="#FF5F5F"/>
  <path d="M59.89,52.47c0.13,0.77,11.99-4.41,17.87-11.14c4.79-5.48,6.73-11.87,11.14-16.4 c4.41-4.53,8.93-9.06,8.93-9.06s-12.97,1.59-20.19,10.16c-7.22,8.57-9.67,14.07-11.26,16.64C64.79,45.25,59.77,51.73,59.89,52.47z" fill="#FF5F5F"/>
</svg>

<svg viewBox="0 0 128 128" xmlns="http://www.w3.org/2000/svg">
  <defs/>
  <path d="M8.04,3.32 C5.31,4.05 4.35,6.66 4.71,9.46 C5.06,12.27 18.4,119.5 18.75,121.61 C19.1,123.72 21.21,124.59 23.66,124.42 C26.12,124.24 28.05,122.31 27.87,120.21 C27.7,118.1 13.66,8.41 13.3,6.83 C12.94,5.25 10.67,2.62 8.04,3.32 Z" fill="#B0B0B0"/>
  <path d="M22.43,117.14 C21.69,117.14 21.04,116.59 20.94,115.83 L7.12,8.39 C7.02,7.57 7.6,6.82 8.42,6.71 C9.24,6.61 9.99,7.18 10.1,8.01 L23.92,115.45 C24.03,116.27 23.45,117.02 22.62,117.13 C22.56,117.14 22.49,117.14 22.43,117.14 Z" fill="#C8C8C8"/>
  <path d="M20.98,73.61 C20.98,73.61 21.19,75.75 21.83,76.94 C22.29,77.81 23.73,77.25 24.89,76.21 C26.11,75.11 32.11,70.95 41.53,68.74 C53.1,66.04 67.73,61.47 76.78,55.52 C89.63,47.08 92.87,40.51 98.69,33.25 C104.56,25.91 108.24,22.48 113.87,19.42 C119.55,16.33 121.83,15.87 122.56,15.87 C123.29,15.87 124.4,13.91 122.68,13.06 C120.97,12.2 108.36,11.35 108.36,11.35 L24.28,59.08 L20.98,73.61 Z" fill="#CC1935"/>
  <path d="M12.65,7.92 L20.97,73.64 C20.97,73.64 25.28,68.59 34.55,65.32 C45.32,61.53 59.88,59.32 67.23,55.53 C74.58,51.74 84.49,43.9 91.1,36.19 C97.71,28.48 102.26,21.78 109.21,16.85 C115.08,12.69 122.67,13.06 122.67,13.06 C122.67,13.06 116.92,8.65 106.39,9.76 C94.22,11.03 78.63,20.52 72.49,19.43 C60.75,17.34 59.04,9.14 47.41,6.57 C29.08,2.52 12.65,7.92 12.65,7.92 Z" fill="#FE2C23"/>
  <path d="M25.5,53.08 C27.08,52.9 28.68,43.29 32.97,35.95 C37.26,28.61 43.98,22.49 46.55,20.77 C49.12,19.06 52.18,16.85 48.14,14.65 C44.1,12.45 36.88,10.73 29.66,10.73 C22.66,10.73 20.85,11.46 20.48,12.32 C20.11,13.18 22.19,35.33 22.93,40.47 C23.67,45.62 24.4,53.2 25.5,53.08 Z" fill="#FF5F5F"/>
  <path d="M59.89,52.47 C60.02,53.24 71.88,48.06 77.76,41.33 C82.55,35.85 84.49,29.46 88.9,24.93 C93.31,20.4 97.83,15.87 97.83,15.87 C97.83,15.87 84.86,17.46 77.64,26.03 C70.42,34.6 67.97,40.1 66.38,42.67 C64.79,45.25 59.77,51.73 59.89,52.47 Z" fill="#FF5F5F"/>
</svg>
